X:237
T: Abendreihen
N: A0283B
O: Europa, Mitteleuropa, Deutschland
N: Geistliche Ringeltentze 1550 No. 11.
R: Romanze, Ballade, Lied
M: 4/2
L: 1/2
K: F
F | A2B2 | c3B | A2G2 | F2z
F | A2B2 | c3B | A2G2 | F2z
B | A2G2 | D2C2 | G2A2 | F2z
B | A2G2 | D2C2 | G2A2 | F2z

@@@ Tune index: 237
